packages/core/src/svgs/cheems.svg

<svg width="24" height="24" viewBox="0 0 24 24" fill="none" xmlns="http://www.w3.org/2000/svg">
<g clip-path="url(#clip0_31_8278)">
<path d="M0 0H24V24H0V0Z" fill="url(#paint0_linear_31_8278)"/>
<path d="M12.0944 6.00007C11.2985 5.98756 10.5082 6.13352 9.76929 6.42944C9.03042 6.72537 8.35781 7.16534 7.79063 7.72374C7.22346 8.28214 6.77305 8.94781 6.46564 9.68198C6.15823 10.4161 5.99997 11.2041 6.00007 12.0001C5.99997 12.796 6.15823 13.584 6.46564 14.3182C6.77305 15.0523 7.22346 15.718 7.79063 16.2764C8.35781 16.8348 9.03042 17.2748 9.76929 17.5707C10.5082 17.8666 11.2985 18.0126 12.0944 18.0001C14.2372 18.0001 16.1744 16.9372 17.2801 15.2744C17.3246 15.2069 17.3821 15.1489 17.4491 15.1037C17.5162 15.0585 17.5915 15.027 17.6708 15.0111C17.7501 14.9951 17.8317 14.9951 17.911 15.0108C17.9904 15.0266 18.0658 15.0579 18.1329 15.1029C18.3129 15.2144 18.4286 15.4115 18.4286 15.6086C18.4286 15.7201 18.3772 15.8358 18.3086 15.9386C16.9286 18.2144 14.6915 19.2858 12.0944 19.2858C11.1314 19.292 10.1766 19.1085 9.28458 18.7457C8.39254 18.3829 7.58069 17.848 6.89539 17.1714C6.21009 16.4949 5.66476 15.69 5.29054 14.8027C4.91631 13.9154 4.72053 12.963 4.71436 12.0001C4.71436 7.97578 8.01864 4.71436 12.0944 4.71436C14.6101 4.71436 17.3144 6.21436 18.3172 8.16864C18.3944 8.2715 18.4286 8.37864 18.4286 8.47293C18.4286 8.6315 18.3386 8.77293 18.1672 8.88864C18.034 8.98237 17.8692 9.01964 17.7086 8.99235C17.5481 8.96505 17.4048 8.8754 17.3101 8.74293C16.7117 7.91491 15.9299 7.23648 15.0258 6.76067C14.1218 6.28485 13.12 6.02454 12.0986 6.00007H12.0944Z" fill="#F6CD95"/>
<path d="M14.5715 7.86849C13.9629 7.32849 12.1372 7.3542 11.3015 7.43134C11.0179 7.20996 10.6746 7.0786 10.3157 7.0542C10.1786 7.0542 10.0157 7.39277 9.89574 7.58991C9.77574 7.78706 9.79717 8.00563 9.83574 8.1642C9.35266 8.56019 8.98822 9.0818 8.78254 9.67161C8.57687 10.2614 8.53793 10.8965 8.67003 11.5071C8.37003 11.8971 7.74431 12.7156 7.64574 12.8742C7.52574 13.0713 7.4486 13.1528 7.5086 13.3285C7.90717 14.3785 8.95288 14.3999 9.15431 14.3999C9.31288 14.3999 9.51431 14.5028 9.59574 14.5585V15.6256C10.6543 16.3542 11.8415 16.5256 12.3043 16.5171C15.6772 16.5171 16.9415 12.9171 16.9415 11.6871C16.9415 10.7571 16.38 9.68563 16.0415 9.13277C15.7972 8.20277 15.0986 7.9842 14.5715 7.86849Z" fill="#FFB53C"/>
<path d="M11.7642 8.81586C11.5628 8.81586 11.0271 9.51015 10.7228 9.85729C10.6895 9.5204 10.7523 9.18096 10.904 8.87832C11.0557 8.57567 11.2901 8.32221 11.5799 8.14729C11.6742 8.11301 11.7471 8.25872 11.7642 8.27586C11.7814 8.29729 11.7985 8.46444 11.8499 8.48158C12.0814 8.48158 12.3342 8.61015 12.4285 8.67015L12.1757 8.81586H11.7642Z" fill="#D58C0C"/>
<path d="M11.7557 10.7144C11.9871 10.7144 12.3 10.8129 12.4285 10.8644C12.1543 11.0144 11.7857 11.1429 11.6314 11.1429C11.4814 11.1429 11.1428 11.0701 11.1428 10.9929C11.1428 10.9201 11.4643 10.7144 11.7557 10.7144Z" fill="#331B00"/>
<path d="M7.7144 12.8573C7.79155 12.8144 7.94583 12.703 8.11726 12.5787C8.32684 12.4207 8.54426 12.2733 8.76869 12.1373C9.09012 11.9658 9.42869 11.7687 9.42869 11.683C9.28726 11.683 8.88869 11.623 8.63155 11.5715C8.4344 11.7858 7.85155 12.4287 7.7144 12.643C7.70155 12.6601 7.72726 12.8401 7.7144 12.8573ZM14.0273 7.58583C14.263 7.65011 14.4601 7.73583 14.5973 7.85154C15.1115 7.96726 15.8101 8.17297 16.0501 9.05583C16.3844 9.58297 16.9415 10.5987 16.9415 11.4815V11.5544L16.6415 11.9701C16.5644 12.013 16.5001 12.0258 16.4444 12.0173C16.3501 12.0001 16.2858 11.9187 16.2173 11.833L16.1273 11.7258C16.0544 11.6487 15.943 11.4901 15.823 11.3187C15.673 11.1044 15.5144 10.873 15.3944 10.7487C15.2401 10.5944 15.0687 10.0844 14.9615 9.7544C14.9101 9.60869 14.8758 9.49726 14.8544 9.47154C14.8244 9.41583 14.7173 9.38583 14.6015 9.35583C14.5073 9.33011 14.4087 9.3044 14.3401 9.26154C14.2544 9.2144 14.1687 9.09011 14.083 8.98297C14.0058 8.88011 13.9415 8.7944 13.903 8.7944C13.8687 8.7944 13.8387 8.82869 13.8044 8.86726C13.7573 8.91869 13.7015 8.97869 13.6244 8.97869C13.483 8.97869 13.2858 8.60583 13.2858 8.32297C13.2858 8.04011 13.5258 7.8344 13.6244 7.79583C13.7015 7.76583 13.9244 7.64583 14.023 7.59011L14.0273 7.58154V7.58583Z" fill="#D58C0C"/>
<path d="M8.59707 11.0829C8.81136 11.0786 9.01279 11.0444 9.01279 10.9372C9.01279 10.8301 8.78993 10.7572 8.59707 10.7144C8.56707 10.8429 8.59707 10.9672 8.59707 11.0829Z" fill="#331B00"/>
<path d="M13.9544 8.73878C13.8867 8.70689 13.8287 8.6575 13.7866 8.59571C13.7444 8.53393 13.7194 8.462 13.7144 8.38735C13.7358 8.26735 13.9115 8.14307 14.2115 8.14307C14.5158 8.14307 14.6229 8.35307 14.6915 8.38735C14.7558 8.42164 14.7986 8.30164 14.8844 8.30164C14.9701 8.30164 15.0558 8.47307 14.9486 8.54592C14.8415 8.6145 14.5801 9.00021 14.4729 9.00021C14.3658 9.00021 14.1901 8.85878 13.9544 8.73878Z" fill="#B76801"/>
<path d="M8.57153 10.0202C8.72582 10.1359 9.02153 10.2859 9.31296 10.2859C9.9301 10.2859 10.3072 9.76307 10.2858 9.21449C10.2687 8.80307 9.9601 8.37449 9.71582 8.14307C8.88868 8.71735 8.8201 9.33878 8.57153 10.0202Z" fill="#FFE3B4"/>
<path d="M9.61293 15.0898L9.95578 15.1969L10.6972 15.4284L12.0001 14.6869C11.9744 14.3226 12.2144 13.6841 12.2144 13.4998C12.2144 13.2684 11.6401 12.8569 11.3358 12.8569C11.2158 12.8569 10.9844 12.9855 10.7186 13.1269C10.3329 13.3412 9.8615 13.5984 9.49293 13.5984C8.99578 13.5984 8.97436 13.1955 8.9615 13.0326L7.72721 13.2726L7.71436 13.4912C7.86483 13.7563 8.07473 13.9829 8.32756 14.1532C8.58039 14.3235 8.86927 14.4329 9.1715 14.4726C9.33007 14.4726 9.5315 14.5969 9.61293 14.6569V15.0898Z" fill="#D58C0C"/>
<path d="M13.35 16.4188C13.5471 16.0888 13.8 15.6902 14.0443 15.4074C14.4762 14.8508 14.8162 14.2286 15.0514 13.5645C15.1114 13.3931 15.2014 13.3074 15.2828 13.2302C15.3643 13.1531 15.4286 13.0888 15.4286 12.9602C15.4286 12.7031 14.5757 11.5159 14.3914 11.4174C14.0833 11.2484 13.7398 11.1545 13.3886 11.1431C12.96 11.1431 11.1728 11.4302 11.07 11.5888C10.9671 11.7474 10.7143 12.7202 10.7143 12.9602C10.7143 13.0459 10.8857 13.0588 11.1128 13.0716C11.49 13.0974 12 13.1316 12 13.5688C12 14.2588 10.8 14.5716 10.1057 14.5716C9.97285 14.5716 9.78856 14.5716 9.63428 14.5588V15.6259C10.7143 16.3545 11.9314 16.5259 12.4028 16.5174C12.7371 16.5174 13.0543 16.4831 13.35 16.4188Z" fill="#FFE3B4"/>
<path d="M9.21434 14.4773C9.58291 14.4601 10.1358 14.293 10.4786 14.2373C10.9233 14.109 11.3096 13.8302 11.5715 13.4487C11.5715 13.363 11.4943 13.2858 11.4172 13.2858C11.2029 13.2858 10.8901 13.5216 10.7143 13.7144C10.5429 13.9073 10.0286 14.143 9.39006 14.143C8.87577 14.143 8.84577 13.3073 8.9272 13.063L7.6972 13.4616L7.52148 13.633C7.8772 14.233 8.58006 14.4601 9.21006 14.4773H9.21434Z" fill="#B76801"/>
<path d="M7.71423 13.7145C8.03566 13.663 8.99994 13.4145 8.99994 12.9859C8.91389 12.8133 8.78011 12.6691 8.61449 12.5704C8.44887 12.4716 8.25838 12.4224 8.06566 12.4288C7.89851 12.4288 7.88137 12.5873 7.71423 12.643C7.67137 12.6902 7.28566 13.213 7.3028 13.2559C7.43137 13.5259 7.50851 13.5645 7.71423 13.7145Z" fill="#331B00"/>
<path d="M9.39419 15.7284V14.6698C9.3717 14.659 9.34883 14.649 9.32562 14.6398C9.25704 14.6098 9.19705 14.5969 9.15419 14.5969C8.94847 14.5969 7.7699 14.5798 7.3199 13.3969V13.3926C7.27276 13.2598 7.27704 13.1484 7.3199 13.0326L7.39276 12.9041L7.42704 12.8441L7.47419 12.7712C7.5299 12.6855 7.71847 12.4284 7.9199 12.1584L8.45562 11.4598C8.33898 10.8455 8.38435 10.2114 8.58725 9.62003C8.79015 9.02861 9.14359 8.50024 9.61276 8.08693C9.59133 7.91551 9.59562 7.69693 9.72419 7.48693L9.78419 7.38408L9.9299 7.13979C9.97276 7.07979 10.0156 7.01551 10.0713 6.96836C10.1142 6.92551 10.1999 6.85693 10.3156 6.85693C10.487 6.85693 10.9156 6.92122 11.357 7.22551C11.7856 7.19122 12.4285 7.16979 13.037 7.22122C13.3628 7.24693 13.6885 7.29408 13.9756 7.36693C14.2328 7.43979 14.4813 7.53836 14.6656 7.68408C14.9228 7.74408 15.2399 7.83836 15.5228 8.03122C15.8751 8.27454 16.1253 8.63923 16.2256 9.0555C16.397 9.33836 16.6199 9.74122 16.8042 10.1955C17.0093 10.6671 17.1241 11.173 17.1428 11.6869C17.1428 12.3469 16.8128 13.5898 16.0542 14.6741C15.2913 15.7626 14.0742 16.7141 12.2999 16.7141C11.807 16.7226 10.577 16.5426 9.47562 15.7884L9.3899 15.7284H9.39419ZM12.3085 16.5169C15.677 16.5169 16.9413 12.9169 16.9413 11.6869C16.9413 10.7569 16.3799 9.6855 16.0413 9.13265C15.797 8.20265 15.0985 7.98408 14.5713 7.86836C13.9628 7.32836 12.137 7.35408 11.3013 7.43122C11.0178 7.20984 10.6745 7.07848 10.3156 7.05408C10.2042 7.05408 10.0756 7.27693 9.96419 7.46979C9.94276 7.51265 9.92133 7.5555 9.89562 7.58979C9.77562 7.78693 9.79705 8.0055 9.83562 8.16408C8.50276 9.22265 8.52847 10.8769 8.69562 11.5498C8.39562 11.9398 7.74419 12.7155 7.64562 12.8741L7.59847 12.9555C7.50419 13.0969 7.45705 13.1784 7.50847 13.3284C7.90705 14.3784 8.95276 14.3998 9.15419 14.3998C9.31276 14.3998 9.55276 14.5026 9.63419 14.5584V15.6255C10.6928 16.3541 11.8413 16.5255 12.3042 16.5169H12.3085Z" fill="#FAFDF4"/>
</g>
<defs>
<linearGradient id="paint0_linear_31_8278" x1="24" y1="12" x2="0" y2="12" gradientUnits="userSpaceOnUse">
<stop stop-color="#E5991F"/>
<stop offset="1" stop-color="#F3B455"/>
</linearGradient>
<clipPath id="clip0_31_8278">
<rect width="24" height="24" fill="white"/>
</clipPath>
</defs>
</svg>

<svg xmlns="http://www.w3.org/2000/svg" width="24" height="24" fill="none" viewBox="0 0 24 24"><g clip-path="url(#a)"><path fill="url(#b)" d="M0 0h24v24H0z"/><path fill="#F6CD95" d="M12.094 6a6 6 0 1 0 0 12c2.143 0 4.08-1.063 5.186-2.726a.613.613 0 0 1 .853-.171c.18.111.296.309.296.506a.6.6 0 0 1-.12.33c-1.38 2.275-3.618 3.347-6.215 3.347A7.333 7.333 0 0 1 4.714 12c0-4.024 3.305-7.286 7.38-7.286 2.516 0 5.22 1.5 6.223 3.455.077.102.112.21.112.304q-.002.24-.262.416a.617.617 0 0 1-.857-.146A6.63 6.63 0 0 0 12.1 6z"/><path fill="#FFB53C" d="M14.572 7.868c-.61-.54-2.435-.514-3.27-.437a1.8 1.8 0 0 0-.986-.377c-.137 0-.3.339-.42.536s-.099.416-.06.574a3.39 3.39 0 0 0-1.166 3.343c-.3.39-.926 1.209-1.024 1.367-.12.197-.197.279-.137.454.398 1.05 1.444 1.072 1.645 1.072.159 0 .36.103.442.159v1.067c1.058.728 2.246.9 2.708.891 3.373 0 4.638-3.6 4.638-4.83 0-.93-.562-2.001-.9-2.554-.245-.93-.943-1.149-1.47-1.265"/><path fill="#D58C0C" d="M11.764 8.816c-.201 0-.737.694-1.041 1.041a1.79 1.79 0 0 1 .857-1.71c.094-.034.167.112.184.129.017.021.035.188.086.206.231 0 .484.128.579.188l-.253.146z"/><path fill="#331B00" d="M11.756 10.714c.231 0 .544.099.672.15-.274.15-.642.279-.797.279-.15 0-.488-.073-.488-.15 0-.073.321-.279.613-.279"/><path fill="#D58C0C" d="M7.714 12.857c.078-.043.232-.154.403-.278q.315-.237.652-.442c.321-.171.66-.368.66-.454-.142 0-.54-.06-.797-.111-.198.214-.78.857-.918 1.071-.012.017.013.197 0 .214m6.313-5.271c.236.064.433.15.57.266.515.115 1.213.321 1.453 1.204.334.527.892 1.543.892 2.426v.072l-.3.416a.3.3 0 0 1-.198.047c-.094-.017-.158-.098-.227-.184l-.09-.107a5 5 0 0 1-.304-.407c-.15-.215-.309-.446-.429-.57-.154-.155-.325-.665-.433-.995-.05-.145-.085-.257-.107-.282-.03-.056-.137-.086-.252-.116-.095-.026-.193-.052-.262-.094-.086-.048-.171-.172-.257-.279-.077-.103-.142-.189-.18-.189-.034 0-.064.035-.099.073-.047.052-.103.112-.18.112-.141 0-.338-.373-.338-.656s.24-.489.338-.527c.077-.03.3-.15.399-.206l.004-.008z"/><path fill="#331B00" d="M8.597 11.083c.214-.004.416-.039.416-.146s-.223-.18-.416-.223c-.03.129 0 .253 0 .369"/><path fill="#B76801" d="M13.954 8.739a.42.42 0 0 1-.24-.352c.022-.12.197-.244.497-.244.305 0 .412.21.48.244.065.035.108-.085.193-.085s.172.171.065.244c-.107.069-.369.454-.476.454s-.283-.141-.519-.261"/><path fill="#FFE3B4" d="M8.572 10.02c.154.116.45.266.741.266.617 0 .994-.523.973-1.072-.017-.41-.326-.84-.57-1.07-.827.573-.896 1.195-1.144 1.876"/><path fill="#D58C0C" d="m9.613 15.09.343.107.741.231L12 14.687c-.026-.364.214-1.003.214-1.187 0-.232-.574-.643-.878-.643-.12 0-.352.129-.617.27-.386.214-.857.471-1.226.471-.497 0-.519-.403-.532-.565l-1.234.24-.013.218a1.97 1.97 0 0 0 1.457.982c.16 0 .36.124.442.184z"/><path fill="#FFE3B4" d="M13.35 16.419c.197-.33.45-.729.694-1.012a6.6 6.6 0 0 0 1.007-1.842.8.8 0 0 1 .232-.335c.081-.077.146-.141.146-.27 0-.257-.853-1.444-1.038-1.543a2.24 2.24 0 0 0-1.002-.274c-.429 0-2.216.287-2.319.446-.103.158-.356 1.131-.356 1.371 0 .086.172.099.399.112.377.025.887.06.887.497 0 .69-1.2 1.003-1.894 1.003-.133 0-.317 0-.472-.013v1.067c1.08.729 2.297.9 2.769.891q.502-.001.947-.098"/><path fill="#B76801" d="M9.214 14.477c.369-.017.922-.184 1.265-.24a2 2 0 0 0 1.093-.788c0-.086-.078-.163-.155-.163-.214 0-.527.236-.703.428-.171.193-.685.429-1.324.429-.514 0-.544-.836-.463-1.08l-1.23.399-.176.171c.356.6 1.06.827 1.69.844z"/><path fill="#331B00" d="M7.714 13.715c.322-.052 1.286-.3 1.286-.73a1.01 1.01 0 0 0-.934-.556c-.167 0-.185.158-.352.214-.043.047-.428.57-.411.613.128.27.206.309.411.458"/><path fill="#FAFDF4" d="M9.394 15.728V14.67l-.068-.03a.5.5 0 0 0-.172-.043c-.206 0-1.384-.017-1.834-1.2v-.004a.5.5 0 0 1 0-.36l.073-.129.034-.06.047-.073c.056-.086.244-.343.446-.613l.536-.698a3.6 3.6 0 0 1 1.157-3.373.9.9 0 0 1 .111-.6l.06-.103.146-.244c.043-.06.086-.124.141-.172a.35.35 0 0 1 .245-.111c.171 0 .6.064 1.041.369a11 11 0 0 1 1.68-.005c.326.026.651.073.939.146.257.073.505.171.69.317.257.06.574.154.857.347.352.244.602.608.703 1.024.171.283.394.686.578 1.14.205.472.32.978.339 1.492 0 .66-.33 1.903-1.089 2.987-.763 1.089-1.98 2.04-3.754 2.04-.493.009-1.723-.171-2.824-.926l-.086-.06zm2.915.789c3.368 0 4.632-3.6 4.632-4.83 0-.93-.561-2.001-.9-2.554-.244-.93-.943-1.149-1.47-1.265-.608-.54-2.434-.514-3.27-.437a1.8 1.8 0 0 0-.985-.377c-.112 0-.24.223-.352.416a1 1 0 0 1-.068.12c-.12.197-.099.415-.06.574-1.333 1.059-1.308 2.713-1.14 3.386-.3.39-.952 1.165-1.05 1.324l-.048.082c-.094.14-.141.222-.09.372.399 1.05 1.445 1.072 1.646 1.072.159 0 .399.103.48.158v1.068c1.059.728 2.207.9 2.67.89z"/></g><defs><linearGradient id="b" x1="24" x2="0" y1="12" y2="12" gradientUnits="userSpaceOnUse"><stop stop-color="#E5991F"/><stop offset="1" stop-color="#F3B455"/></linearGradient><clipPath id="a"><path fill="#fff" d="M0 0h24v24H0z"/></clipPath></defs></svg>
